**kern	**kern	**kern	**kern
*staff3	*staff4	*staff1	*staff2
*clefF4	*clefF4	*clefG2	*clefG2
*k[f#c#]	*k[f#c#]	*k[f#c#]	*k[f#c#]
*M2/4	*M2/4	*M2/4	*M2/4
*D:	*D:	*D:	*D:
=-	=-	=-	=-
(4A	(4D	8ff#L	2r
.	.	[8aaJ	.
([4A) 4c#	(4G)	16aaLL]	.
.	.	16gg	.
.	.	16ff#	.
.	.	16eeJJ	.
=137	=137	=137	=137
4A]) 4d	4F#)	8ddL	2r
.	.	[8ff#J	.
[4d	(4D	16ff#LL]	.
.	.	16ee	.
.	.	16dd	.
.	.	([16cc#JJ	.
=138	=138	=138	=138
2d]	4G	16cc#LL]	2r
.	.	16b	.
.	.	16dd	.
.	.	16cc#JJ	.
.	4B	16eeLL	.
.	.	16dd	.
.	.	16cc#	.
.	.	16bJJ	.
=139	=139	=139	=139
8d	8d)	16aLL	2r
.	.	16g#	.
8r	8r	16b	.
.	.	16aJJ	.
4r	4r	16gLL	.
.	.	16f#	.
.	.	16e	.
.	.	16dJJ)	.
=140	=140	=140	=140
2r	4r	(16c#LL	4r
.	.	16d	.
.	.	16e	.
.	.	16dJJ)	.
.	4DD [4AA 4D	4f#^	8r
.	.	.	8A
=141	=141	=141	=141
2r	8CC# 8AA] 8C#	(16d#LL	4r
.	.	16e	.
.	8r	16f#	.
.	.	16eJJ)	.
.	4CC# [4AA 4C#	4g^	8r
.	.	.	8A
=142	=142	=142	=142
2r	8DD 8AA] 8D	16c#LL	4r
.	.	16d	.
.	8r	16e	.
.	.	16dJJ	.
.	(4DD	[4f#	8dL
.	.	.	[8AJ
=143	=143	=143	=143
2r	(4AA)	(4f#]	(4A] 4d
.	8AAA)	8e)	8A) 8c#
.	8r	8r	8r
=144:|!|:	=144:|!|:	=144:|!|:	=144:|!|:
*-	*-	*-	*-
